Newaita/actions/32/go-jump.svg

<?xml version="1.0" encoding="UTF-8"?>
<svg xmlns="http://www.w3.org/2000/svg" xmlns:xlink="http://www.w3.org/1999/xlink" width="32pt" height="32pt" viewBox="0 0 32 32" version="1.1">
<g id="surface1">
<path style=" stroke:none;fill-rule:nonzero;fill:rgb(25.882354%,25.882354%,25.882354%);fill-opacity:1;" d="M 30.429688 16.125 C 30.429688 8.0625 23.9375 1.574219 15.875 1.574219 C 7.8125 1.574219 1.324219 8.0625 1.324219 16.125 C 1.324219 24.1875 7.8125 30.679688 15.875 30.679688 C 23.9375 30.679688 30.429688 24.1875 30.429688 16.125 Z M 28.445312 16.125 C 28.445312 23.089844 22.839844 28.695312 15.875 28.695312 C 8.914062 28.695312 3.308594 23.089844 3.308594 16.125 C 3.308594 9.164062 8.914062 3.558594 15.875 3.558594 C 22.839844 3.558594 28.445312 9.164062 28.445312 16.125 Z M 28.445312 16.125 "/>
<path style=" stroke:none;fill-rule:nonzero;fill:rgb(14.901961%,65.098041%,60.392159%);fill-opacity:1;" d="M 11.457031 23.058594 C 11.203125 23.058594 10.953125 22.960938 10.757812 22.765625 C 10.367188 22.378906 10.367188 21.753906 10.757812 21.363281 L 16.136719 15.984375 L 10.757812 10.605469 C 10.367188 10.214844 10.367188 9.589844 10.757812 9.203125 C 11.144531 8.8125 11.773438 8.8125 12.160156 9.203125 L 18.242188 15.28125 C 18.253906 15.292969 18.265625 15.308594 18.277344 15.320312 C 18.289062 15.332031 18.300781 15.34375 18.308594 15.359375 C 18.320312 15.371094 18.332031 15.382812 18.339844 15.398438 C 18.351562 15.410156 18.359375 15.425781 18.367188 15.4375 C 18.378906 15.453125 18.386719 15.464844 18.394531 15.480469 C 18.402344 15.496094 18.410156 15.507812 18.417969 15.523438 C 18.425781 15.539062 18.433594 15.550781 18.441406 15.566406 C 18.449219 15.582031 18.453125 15.597656 18.460938 15.609375 C 18.464844 15.625 18.472656 15.640625 18.476562 15.65625 C 18.480469 15.671875 18.488281 15.6875 18.492188 15.703125 C 18.496094 15.71875 18.5 15.734375 18.503906 15.75 C 18.507812 15.765625 18.511719 15.78125 18.515625 15.796875 C 18.519531 15.8125 18.519531 15.828125 18.523438 15.84375 C 18.523438 15.859375 18.527344 15.875 18.527344 15.890625 C 18.53125 15.90625 18.53125 15.921875 18.53125 15.9375 C 18.53125 15.953125 18.53125 15.96875 18.53125 15.984375 C 18.53125 16 18.53125 16.015625 18.53125 16.03125 C 18.53125 16.046875 18.53125 16.0625 18.527344 16.078125 C 18.527344 16.09375 18.523438 16.109375 18.523438 16.125 C 18.519531 16.140625 18.519531 16.15625 18.515625 16.171875 C 18.511719 16.1875 18.507812 16.203125 18.503906 16.21875 C 18.5 16.234375 18.496094 16.25 18.492188 16.265625 C 18.488281 16.28125 18.480469 16.296875 18.476562 16.3125 C 18.472656 16.328125 18.464844 16.34375 18.460938 16.355469 C 18.453125 16.371094 18.449219 16.386719 18.441406 16.402344 C 18.433594 16.417969 18.425781 16.429688 18.417969 16.445312 C 18.410156 16.460938 18.402344 16.472656 18.394531 16.488281 C 18.386719 16.503906 18.378906 16.515625 18.367188 16.53125 C 18.359375 16.542969 18.351562 16.558594 18.339844 16.570312 C 18.332031 16.585938 18.320312 16.597656 18.308594 16.609375 C 18.300781 16.625 18.289062 16.636719 18.277344 16.648438 C 18.265625 16.660156 18.253906 16.671875 18.242188 16.6875 L 12.160156 22.765625 C 11.964844 22.960938 11.710938 23.058594 11.457031 23.058594 Z M 11.457031 23.058594 "/>
<path style=" stroke:none;fill-rule:nonzero;fill:rgb(100%,43.921569%,26.274511%);fill-opacity:1;" d="M 19.183594 16.125 C 19.183594 17.222656 20.054688 18.109375 21.128906 18.109375 L 21.207031 18.109375 C 22.28125 18.109375 23.152344 17.222656 23.152344 16.125 C 23.152344 15.03125 22.28125 14.140625 21.207031 14.140625 L 21.128906 14.140625 C 20.054688 14.140625 19.183594 15.03125 19.183594 16.125 Z M 19.183594 16.125 "/>
</g>
</svg>

<svg xmlns="http://www.w3.org/2000/svg" width="32pt" height="32pt" viewBox="0 0 32 32"><path d="M30.43 16.125a14.52 14.52 0 0 0-14.555-14.55 14.517 14.517 0 0 0-14.55 14.55 14.52 14.52 0 0 0 14.55 14.555A14.524 14.524 0 0 0 30.43 16.125zm-1.985 0c0 6.965-5.605 12.57-12.57 12.57a12.54 12.54 0 0 1-12.566-12.57A12.54 12.54 0 0 1 15.875 3.559a12.54 12.54 0 0 1 12.57 12.566zm0 0" fill="#424242"/><path d="M11.457 23.059a.982.982 0 0 1-.7-.293.986.986 0 0 1 0-1.403l5.38-5.379-5.38-5.379a.986.986 0 0 1 0-1.402.986.986 0 0 1 1.403 0l6.082 6.078c.012.012.024.028.035.04.012.011.024.023.032.038.011.012.023.024.03.04.013.011.02.027.028.039.012.015.02.027.028.042.007.016.015.028.023.043l.023.043c.008.016.012.032.02.043.004.016.012.032.016.047.003.016.011.031.015.047l.012.047.012.047c.004.015.004.031.007.047 0 .015.004.031.004.047a.19.19 0 0 1 .004.046v.094c0 .016 0 .032-.004.047 0 .016-.004.031-.004.047-.003.016-.003.031-.007.047l-.012.047-.012.047c-.004.015-.012.03-.015.047-.004.015-.012.03-.016.042-.008.016-.012.032-.02.047-.007.016-.015.028-.023.043l-.023.043a.263.263 0 0 1-.028.043c-.008.012-.015.028-.027.04-.008.015-.02.027-.031.038-.008.016-.02.028-.032.04a.352.352 0 0 0-.035.038l-6.082 6.079a.991.991 0 0 1-.703.293zm0 0" fill="#26a69a"/><path d="M19.184 16.125c0 1.098.87 1.984 1.945 1.984h.078c1.074 0 1.945-.886 1.945-1.984 0-1.094-.87-1.984-1.945-1.984h-.078c-1.074 0-1.945.89-1.945 1.984zm0 0" fill="#ff7043"/></svg>
